;FLAVOR:Marlin
;TIME:2827
;Filament used: 3.38874m
;Layer height: 0.2
;MINX:45.12
;MINY:86.22
;MINZ:0.2
;MAXX:254.88
;MAXY:213.78
;MAXZ:2.4
;Generated with Cura_SteamEngine 4.1.0
M140 S50
M105
M190 S50
M104 S195
M105
M109 S195
M82 ;absolute extrusion mode
G28 ;Home
G1 Z15.0 F6000 ;Move the platform down 15mm
;Prime the extruder
G92 E0
G1 F200 E3
G92 E0
G92 E0
G92 E0
G1 F2400 E-5
;LAYER_COUNT:12
;LAYER:0
M107
M204 S5000
M205 X30 Y30
G0 F3600 X53.102 Y88 Z0.2
M204 S500
M205 X8 Y8
;TYPE:SKIRT
G1 F2400 E0
G1 F3000 X53.731 Y87.659 E0.0238
G1 X54.378 Y87.397 E0.04701
G1 X54.951 Y87.2 E0.06717
G1 X55.051 Y87.166 E0.07068
G1 X55.856 Y86.904 E0.09884
G1 X55.948 Y86.875 E0.10205
G1 X56.615 Y86.669 E0.12526
G1 X57.31 Y86.496 E0.14908
G1 X57.84 Y86.419 E0.1669
G1 X58.664 Y86.333 E0.19445
G1 X58.778 Y86.322 E0.19826
G1 X59.567 Y86.254 E0.2246
G1 X59.925 Y86.233 E0.23653
G1 X60.258 Y86.223 E0.24761
G1 X60.45 Y86.22 E0.254
G1 X239.173 Y86.22 E6.19835
G1 X239.263 Y86.221 E6.20134
G1 X240.116 Y86.233 E6.22971
G1 X240.252 Y86.236 E6.23424
G1 X240.62 Y86.249 E6.24649
G1 X241.472 Y86.337 E6.27498
G1 X242.133 Y86.45 E6.29728
G1 X242.258 Y86.472 E6.3015
G1 X243.042 Y86.622 E6.32805
G1 X243.124 Y86.638 E6.33083
G1 X243.802 Y86.777 E6.35385
G1 X244.494 Y86.96 E6.37765
G1 X245.117 Y87.199 E6.39985
G1 X245.704 Y87.46 E6.42121
G1 X245.826 Y87.516 E6.42568
G1 X246.56 Y87.861 E6.45265
G1 X246.643 Y87.9 E6.45571
G1 X247.285 Y88.213 E6.47946
G1 X247.909 Y88.562 E6.50324
G1 X248.474 Y88.965 E6.52632
G1 X248.946 Y89.342 E6.54641
G1 X249.03 Y89.411 E6.55003
G1 X249.694 Y89.96 E6.57869
G1 X249.764 Y90.018 E6.58171
G1 X250.281 Y90.458 E6.60429
G1 X250.799 Y90.951 E6.62807
G1 X251.231 Y91.463 E6.65036
G1 X251.577 Y91.919 E6.66939
G1 X251.656 Y92.025 E6.67379
G1 X252.18 Y92.746 E6.70344
G1 X252.228 Y92.814 E6.7062
G1 X252.624 Y93.374 E6.72902
G1 X253.004 Y93.98 E6.75281
G1 X253.304 Y94.601 E6.77574
G1 X253.559 Y95.211 E6.79773
G1 X253.599 Y95.31 E6.80129
G1 X253.819 Y95.862 E6.82105
G1 X253.853 Y95.948 E6.82413
G1 X254.173 Y96.786 E6.85396
G1 X254.39 Y97.467 E6.87773
G1 X254.529 Y98.16 E6.90124
G1 X254.647 Y98.982 E6.92886
G1 X254.662 Y99.089 E6.93246
G1 X254.726 Y99.596 E6.94945
G1 X254.736 Y99.687 E6.9525
G1 X254.804 Y100.295 E6.97285
G1 X254.843 Y100.871 E6.99205
G1 X254.864 Y101.866 E7.02515
G1 X254.865 Y101.98 E7.02894
G1 X254.88 Y106.64 E7.18393
G1 X254.88 Y198.054 E10.22438
G1 X254.879 Y198.137 E10.22714
G1 X254.871 Y198.752 E10.24759
G1 X254.836 Y199.343 E10.26728
G1 X254.721 Y200.429 E10.30361
G1 X254.708 Y200.549 E10.30762
G1 X254.626 Y201.205 E10.32961
G1 X254.607 Y201.341 E10.33418
G1 X254.533 Y201.845 E10.35112
G1 X254.39 Y202.545 E10.37488
G1 X254.225 Y203.077 E10.39341
G1 X254.141 Y203.311 E10.40168
G1 X254.071 Y203.496 E10.40826
G1 X253.557 Y204.8 E10.45488
G1 X253.509 Y204.918 E10.45911
G1 X253.317 Y205.378 E10.47569
G1 X253.005 Y206.022 E10.49949
G1 X252.67 Y206.561 E10.5206
G1 X252.405 Y206.943 E10.53606
G1 X252.322 Y207.06 E10.54083
G1 X251.823 Y207.746 E10.56905
G1 X251.773 Y207.812 E10.5718
G1 X251.415 Y208.291 E10.59169
G1 X251.043 Y208.745 E10.61121
G1 X250.824 Y208.988 E10.62209
G1 X250.253 Y209.547 E10.64867
G1 X249.44 Y210.249 E10.6844
G1 X249.337 Y210.336 E10.68888
G1 X249.111 Y210.523 E10.69864
G1 X249.045 Y210.577 E10.70147
G1 X248.501 Y211.015 E10.7247
G1 X247.919 Y211.432 E10.74852
G1 X247.299 Y211.779 E10.77215
G1 X246.706 Y212.069 E10.7941
G1 X246.623 Y212.109 E10.79717
G1 X245.887 Y212.456 E10.82423
G1 X245.806 Y212.493 E10.82719
G1 X245.19 Y212.773 E10.8497
G1 X244.524 Y213.032 E10.87347
G1 X243.85 Y213.212 E10.89667
G1 X243.218 Y213.344 E10.91814
G1 X243.104 Y213.367 E10.92201
G1 X242.314 Y213.517 E10.94876
G1 X242.235 Y213.531 E10.95142
G1 X241.534 Y213.655 E10.9751
G1 X240.624 Y213.75 E11.00553
G1 X239.938 Y213.772 E11.02836
G1 X239.733 Y213.775 E11.03518
G1 X60.827 Y213.78 E16.98562
G1 X60.735 Y213.779 E16.98868
G1 X60.037 Y213.769 E17.0119
G1 X59.566 Y213.745 E17.02758
G1 X58.422 Y213.644 E17.06578
G1 X58.314 Y213.634 E17.06939
G1 X57.849 Y213.585 E17.08494
G1 X57.143 Y213.47 E17.10873
G1 X56.642 Y213.338 E17.12596
G1 X56.01 Y213.144 E17.14795
G1 X55.911 Y213.113 E17.1514
G1 X55.172 Y212.873 E17.17724
G1 X55.086 Y212.844 E17.18026
G1 X54.399 Y212.61 E17.2044
G1 X53.735 Y212.342 E17.22822
G1 X53.128 Y212.015 E17.25115
G1 X52.62 Y211.705 E17.27094
G1 X52.517 Y211.641 E17.27498
G1 X51.774 Y211.168 E17.30427
G1 X51.71 Y211.126 E17.30682
G1 X51.15 Y210.76 E17.32907
G1 X50.574 Y210.336 E17.35286
G1 X50.073 Y209.876 E17.37548
G1 X49.648 Y209.441 E17.39571
G1 X49.563 Y209.351 E17.39982
G1 X48.968 Y208.718 E17.42872
G1 X48.912 Y208.658 E17.43145
G1 X48.454 Y208.158 E17.454
G1 X48.001 Y207.604 E17.4778
G1 X47.608 Y206.996 E17.50188
G1 X47.287 Y206.431 E17.52349
G1 X47.242 Y206.35 E17.52658
G1 X46.967 Y205.849 E17.54558
G1 X46.937 Y205.794 E17.54767
G1 X46.494 Y204.968 E17.57884
G1 X46.192 Y204.32 E17.60262
G1 X45.958 Y203.62 E17.62717
G1 X45.766 Y202.913 E17.65154
G1 X45.743 Y202.826 E17.65453
G1 X45.603 Y202.28 E17.67328
G1 X45.585 Y202.209 E17.67571
G1 X45.381 Y201.374 E17.7043
G1 X45.25 Y200.671 E17.72809
G1 X45.214 Y200.305 E17.74032
G1 X45.185 Y199.894 E17.75402
G1 X45.18 Y199.812 E17.75675
G1 X45.14 Y199.118 E17.77987
G1 X45.132 Y198.939 E17.78583
G1 X45.123 Y198.634 E17.79598
G1 X45.12 Y198.445 E17.80227
G1 X45.12 Y101.927 E21.01247
G1 X45.121 Y101.836 E21.0155
G1 X45.131 Y101.129 E21.03902
G1 X45.145 Y100.783 E21.05053
G1 X45.214 Y99.774 E21.08417
G1 X45.335 Y98.897 E21.11362
G1 X45.391 Y98.63 E21.12269
G1 X45.441 Y98.41 E21.13019
G1 X45.79 Y96.996 E21.17864
G1 X45.828 Y96.851 E21.18362
G1 X45.955 Y96.384 E21.19972
G1 X46.181 Y95.705 E21.22352
G1 X46.461 Y95.095 E21.24584
G1 X46.706 Y94.627 E21.26341
G1 X46.765 Y94.516 E21.26759
G1 X47.261 Y93.612 E21.30189
G1 X47.323 Y93.502 E21.30609
G1 X47.623 Y92.98 E21.32611
G1 X48.014 Y92.381 E21.34991
G1 X48.426 Y91.875 E21.37161
G1 X48.778 Y91.486 E21.38906
G1 X48.86 Y91.397 E21.39308
G1 X49.405 Y90.817 E21.41955
G1 X49.464 Y90.755 E21.4224
G1 X49.853 Y90.352 E21.44103
G1 X50.282 Y89.948 E21.46063
G1 X50.563 Y89.706 E21.47296
G1 X51.197 Y89.224 E21.49945
G1 X52.061 Y88.65 E21.53395
G1 X52.179 Y88.574 E21.53862
G1 X52.449 Y88.403 E21.54925
G1 X52.516 Y88.361 E21.55188
G1 X53.102 Y88 E21.57477
M204 S5000
M205 X30 Y30
G0 F3600 X53.312 Y88.341
M204 S500
M205 X8 Y8
G1 F3000 X53.922 Y88.012 E21.59782
G1 X54.508 Y87.775 E21.61885
G1 X55.081 Y87.578 E21.639
G1 X55.175 Y87.547 E21.64229
G1 X55.98 Y87.285 E21.67045
G1 X56.066 Y87.257 E21.67346
G1 X56.733 Y87.051 E21.69668
G1 X57.406 Y86.885 E21.71973
G1 X57.881 Y86.816 E21.7357
G1 X58.705 Y86.73 E21.76325
G1 X58.813 Y86.72 E21.76686
G1 X59.602 Y86.652 E21.7932
G1 X59.937 Y86.633 E21.80436
G1 X60.27 Y86.623 E21.81544
G1 X60.45 Y86.62 E21.82143
G1 X239.173 Y86.62 E27.76578
G1 X239.257 Y86.621 E27.76857
G1 X240.11 Y86.633 E27.79695
G1 X240.238 Y86.636 E27.8012
G1 X240.606 Y86.649 E27.81345
G1 X241.405 Y86.731 E27.84017
G1 X242.066 Y86.844 E27.86247
G1 X242.183 Y86.865 E27.86642
G1 X242.967 Y87.015 E27.89297
G1 X243.044 Y87.03 E27.89558
G1 X243.722 Y87.169 E27.9186
G1 X244.391 Y87.347 E27.94163
G1 X244.955 Y87.565 E27.96174
G1 X245.542 Y87.826 E27.9831
G1 X245.656 Y87.878 E27.98727
G1 X246.39 Y88.223 E28.01425
G1 X246.467 Y88.26 E28.01709
G1 X247.109 Y88.573 E28.04084
G1 X247.713 Y88.912 E28.06388
G1 X248.225 Y89.278 E28.08481
G1 X248.697 Y89.655 E28.10491
G1 X248.775 Y89.719 E28.10826
G1 X249.439 Y90.268 E28.13692
G1 X249.505 Y90.323 E28.13977
G1 X250.022 Y90.763 E28.16235
G1 X250.522 Y91.241 E28.18536
G1 X250.913 Y91.705 E28.20554
G1 X251.259 Y92.161 E28.22458
G1 X251.333 Y92.261 E28.22872
G1 X251.857 Y92.982 E28.25836
G1 X251.902 Y93.045 E28.26094
G1 X252.298 Y93.605 E28.28375
G1 X252.664 Y94.192 E28.30676
G1 X252.935 Y94.755 E28.32754
G1 X253.19 Y95.365 E28.34953
G1 X253.228 Y95.458 E28.35287
G1 X253.448 Y96.01 E28.37264
G1 X253.479 Y96.091 E28.37552
G1 X253.799 Y96.929 E28.40536
G1 X254.009 Y97.589 E28.42839
G1 X254.133 Y98.216 E28.44965
G1 X254.251 Y99.038 E28.47727
G1 X254.265 Y99.14 E28.48069
G1 X254.329 Y99.647 E28.49769
G1 X254.339 Y99.731 E28.5005
G1 X254.407 Y100.339 E28.52085
G1 X254.443 Y100.879 E28.53885
G1 X254.464 Y101.874 E28.57195
G1 X254.465 Y101.982 E28.57555
G1 X254.48 Y106.642 E28.73054
G1 X254.48 Y198.054 E31.77091
G1 X254.479 Y198.132 E31.77351
G1 X254.471 Y198.747 E31.79397
G1 X254.439 Y199.301 E31.81242
G1 X254.324 Y200.387 E31.84875
G1 X254.311 Y200.499 E31.8525
G1 X254.229 Y201.155 E31.87448
G1 X254.211 Y201.283 E31.87878
G1 X254.137 Y201.787 E31.89573
G1 X253.997 Y202.465 E31.91875
G1 X253.848 Y202.942 E31.93537
G1 X253.764 Y203.176 E31.94364
G1 X253.699 Y203.349 E31.94979
G1 X253.185 Y204.653 E31.99641
G1 X253.14 Y204.764 E32.00039
G1 X252.948 Y205.224 E32.01697
G1 X252.645 Y205.847 E32.04001
G1 X252.341 Y206.333 E32.05908
G1 X252.076 Y206.715 E32.07454
G1 X251.998 Y206.824 E32.079
G1 X251.499 Y207.51 E32.10721
G1 X251.453 Y207.573 E32.10981
G1 X251.095 Y208.052 E32.1297
G1 X250.746 Y208.477 E32.14799
G1 X250.527 Y208.72 E32.15887
G1 X249.991 Y209.244 E32.1838
G1 X249.178 Y209.946 E32.21953
G1 X249.082 Y210.028 E32.22373
G1 X248.856 Y210.215 E32.23348
G1 X248.794 Y210.265 E32.23613
G1 X248.25 Y210.703 E32.25936
G1 X247.686 Y211.106 E32.28242
G1 X247.123 Y211.42 E32.30386
G1 X246.53 Y211.71 E32.32581
G1 X246.453 Y211.747 E32.32865
G1 X245.717 Y212.094 E32.35572
G1 X245.641 Y212.129 E32.3585
G1 X245.025 Y212.409 E32.38101
G1 X244.379 Y212.659 E32.40404
G1 X243.769 Y212.82 E32.42503
G1 X243.137 Y212.952 E32.4465
G1 X243.029 Y212.974 E32.45017
G1 X242.239 Y213.124 E32.47691
G1 X242.165 Y213.137 E32.47941
G1 X241.464 Y213.261 E32.50309
G1 X240.611 Y213.35 E32.53161
G1 X239.925 Y213.372 E32.55444
G1 X239.733 Y213.375 E32.56083
G1 X60.827 Y213.38 E38.51127
G1 X60.741 Y213.379 E38.51413
G1 X60.043 Y213.369 E38.53735
G1 X59.601 Y213.347 E38.55206
G1 X58.457 Y213.246 E38.59026
G1 X58.356 Y213.236 E38.59364
G1 X57.891 Y213.187 E38.60919
G1 X57.208 Y213.075 E38.63221
G1 X56.759 Y212.956 E38.64766
G1 X56.127 Y212.762 E38.66965
G1 X56.035 Y212.733 E38.67286
G1 X55.296 Y212.493 E38.6987
G1 X55.214 Y212.466 E38.70157
G1 X54.527 Y212.232 E38.72571
G1 X53.886 Y211.971 E38.74873
G1 X53.337 Y211.674 E38.76949
G1 X52.829 Y211.364 E38.78928
G1 X52.732 Y211.303 E38.79309
G1 X51.989 Y210.83 E38.82239
G1 X51.928 Y210.791 E38.8248
G1 X51.368 Y210.425 E38.84705
G1 X50.812 Y210.014 E38.87004
G1 X50.359 Y209.596 E38.89054
G1 X49.934 Y209.161 E38.91077
G1 X49.854 Y209.077 E38.91463
G1 X49.259 Y208.444 E38.94352
G1 X49.207 Y208.388 E38.94607
G1 X48.749 Y207.888 E38.96862
G1 X48.311 Y207.351 E38.99167
G1 X47.956 Y206.799 E39.0135
G1 X47.635 Y206.234 E39.03511
G1 X47.592 Y206.157 E39.03804
G1 X47.317 Y205.656 E39.05705
G1 X47.289 Y205.605 E39.05899
G1 X46.846 Y204.779 E39.09016
G1 X46.555 Y204.151 E39.11318
G1 X46.344 Y203.515 E39.13547
G1 X46.152 Y202.808 E39.15984
G1 X46.13 Y202.726 E39.16266
G1 X45.99 Y202.18 E39.18141
G1 X45.973 Y202.114 E39.18367
G1 X45.769 Y201.279 E39.21226
G1 X45.613 Y200.277 E39.24599
G1 X45.584 Y199.866 E39.25969
G1 X45.579 Y199.789 E39.26226
G1 X45.539 Y199.095 E39.28538
G1 X45.532 Y198.927 E39.29097
G1 X45.523 Y198.622 E39.30112
G1 X45.52 Y198.445 E39.30701
G1 X45.52 Y101.927 E42.51721
G1 X45.521 Y101.842 E42.52004
G1 X45.531 Y101.135 E42.54356
G1 X45.544 Y100.811 E42.55434
G1 X45.613 Y99.802 E42.58798
G1 X45.727 Y98.979 E42.61561
G1 X45.783 Y98.712 E42.62469
G1 X45.83 Y98.506 E42.63172
G1 X46.179 Y97.092 E42.68016
G1 X46.214 Y96.955 E42.68486
G1 X46.341 Y96.488 E42.70096
G1 X46.561 Y95.832 E42.72397
G1 X46.815 Y95.28 E42.74418
G1 X47.06 Y94.812 E42.76175
G1 X47.116 Y94.709 E42.76565
G1 X47.612 Y93.805 E42.79994
G1 X47.67 Y93.701 E42.8039
G1 X47.97 Y93.179 E42.82393
G1 X48.349 Y92.6 E42.84695
G1 X48.723 Y92.143 E42.86659
G1 X49.075 Y91.754 E42.88404
G1 X49.151 Y91.671 E42.88778
G1 X49.696 Y91.091 E42.91425
G1 X49.752 Y91.033 E42.91693
G1 X50.141 Y90.63 E42.93556
G1 X50.543 Y90.251 E42.95394
G1 X50.824 Y90.009 E42.96627
G1 X51.419 Y89.557 E42.99112
G1 X52.283 Y88.983 E43.02562
G1 X52.393 Y88.912 E43.02998
G1 X52.663 Y88.741 E43.04061
G1 X52.726 Y88.702 E43.04307
G1 X53.312 Y88.341 E43.06596
M204 S5000
M205 X30 Y30
G0 F3600 X53.522 Y88.681
M204 S500
M205 X8 Y8
G1 F3000 X54.111 Y88.365 E43.0882
G1 X54.638 Y88.153 E43.10709
G1 X55.211 Y87.956 E43.12724
G1 X55.299 Y87.927 E43.13032
G1 X56.104 Y87.665 E43.15848
G1 X56.184 Y87.639 E43.16128
G1 X56.851 Y87.433 E43.1845
G1 X57.501 Y87.274 E43.20675
G1 X57.923 Y87.214 E43.22093
G1 X58.747 Y87.128 E43.24849
G1 X58.847 Y87.119 E43.25183
G1 X59.636 Y87.051 E43.27817
G1 X59.949 Y87.033 E43.28859
G1 X60.282 Y87.023 E43.29967
G1 X60.45 Y87.02 E43.30526
G1 X239.173 Y87.02 E49.24961
G1 X239.252 Y87.021 E49.25224
G1 X240.105 Y87.033 E49.28061
G1 X240.224 Y87.035 E49.28457
G1 X240.592 Y87.048 E49.29682
G1 X241.338 Y87.125 E49.32176
G1 X241.999 Y87.238 E49.34407
G1 X242.107 Y87.258 E49.34772
G1 X242.891 Y87.408 E49.37427
G1 X242.964 Y87.422 E49.37674
G1 X243.642 Y87.561 E49.39976
G1 X244.288 Y87.734 E49.42201
G1 X244.792 Y87.93 E49.43999
G1 X245.379 Y88.191 E49.46136
G1 X245.486 Y88.24 E49.46527
G1 X246.22 Y88.585 E49.49225
G1 X246.292 Y88.619 E49.4949
G1 X246.934 Y88.932 E49.51865
G1 X247.517 Y89.261 E49.54092
G1 X247.975 Y89.59 E49.55967
G1 X248.447 Y89.967 E49.57976
G1 X248.52 Y90.027 E49.58291
G1 X249.184 Y90.576 E49.61156
G1 X249.245 Y90.627 E49.61421
G1 X249.762 Y91.067 E49.63679
G1 X250.245 Y91.531 E49.65906
G1 X250.594 Y91.947 E49.67712
G1 X250.94 Y92.403 E49.69616
G1 X251.009 Y92.496 E49.70001
G1 X251.533 Y93.217 E49.72966
G1 X251.575 Y93.276 E49.73207
G1 X251.971 Y93.836 E49.75488
G1 X252.324 Y94.404 E49.77712
G1 X252.566 Y94.909 E49.79575
G1 X252.821 Y95.519 E49.81774
G1 X252.856 Y95.606 E49.82086
G1 X253.076 Y96.158 E49.84062
G1 X253.106 Y96.233 E49.84331
G1 X253.426 Y97.071 E49.87314
G1 X253.626 Y97.709 E49.89538
G1 X253.737 Y98.273 E49.9145
G1 X253.855 Y99.095 E49.94212
G1 X253.868 Y99.19 E49.94531
G1 X253.932 Y99.697 E49.96231
G1 X253.941 Y99.776 E49.96495
G1 X254.009 Y100.384 E49.9853
G1 X254.043 Y100.888 E50.0021
G1 X254.064 Y101.883 E50.0352
G1 X254.065 Y101.983 E50.03853
G1 X254.08 Y106.643 E50.19352
G1 X254.08 Y198.127 E53.23629
G1 X254.072 Y198.742 E53.25675
G1 X254.041 Y199.259 E53.27397
G1 X253.926 Y200.345 E53.3103
G1 X253.914 Y200.45 E53.31381
G1 X253.832 Y201.106 E53.3358
G1 X253.816 Y201.225 E53.33979
G1 X253.742 Y201.729 E53.35674
G1 X253.605 Y202.383 E53.37896
G1 X253.472 Y202.807 E53.39374
G1 X253.388 Y203.041 E53.40201
G1 X253.327 Y203.203 E53.40777
G1 X252.813 Y204.507 E53.45439
G1 X252.771 Y204.61 E53.45808
G1 X252.579 Y205.07 E53.47466
G1 X252.285 Y205.671 E53.49692
G1 X252.012 Y206.105 E53.51397
G1 X251.747 Y206.487 E53.52943
G1 X251.675 Y206.589 E53.53359
G1 X251.176 Y207.275 E53.5618
G1 X251.133 Y207.334 E53.56423
G1 X250.775 Y207.813 E53.58412
G1 X250.449 Y208.209 E53.60118
G1 X250.23 Y208.452 E53.61206
G1 X249.73 Y208.942 E53.63534
G1 X248.917 Y209.644 E53.67107
G1 X248.827 Y209.72 E53.67499
G1 X248.601 Y209.907 E53.68474
G1 X248.543 Y209.954 E53.68723
G1 X247.999 Y210.392 E53.71045
G1 X247.454 Y210.78 E53.73271
G1 X246.947 Y211.061 E53.75199
G1 X246.354 Y211.351 E53.77394
G1 X246.282 Y211.385 E53.77659
G1 X245.546 Y211.732 E53.80365
G1 X245.475 Y211.765 E53.80626
G1 X244.859 Y212.045 E53.82876
G1 X244.235 Y212.285 E53.851
G1 X243.687 Y212.429 E53.86984
G1 X243.055 Y212.561 E53.89132
G1 X242.955 Y212.581 E53.89471
G1 X242.165 Y212.731 E53.92146
G1 X242.095 Y212.743 E53.92382
G1 X241.394 Y212.867 E53.9475
G1 X240.598 Y212.95 E53.97411
G1 X239.912 Y212.972 E53.99694
G1 X239.733 Y212.975 E54.0029
G1 X60.827 Y212.98 E59.95333
G1 X60.747 Y212.979 E59.95599
G1 X60.049 Y212.969 E59.97921
G1 X59.637 Y212.948 E59.99293
G1 X58.493 Y212.847 E60.03113
G1 X58.398 Y212.838 E60.03431
G1 X57.933 Y212.789 E60.04986
G1 X57.273 Y212.679 E60.07211
G1 X56.877 Y212.573 E60.08575
G1 X56.245 Y212.379 E60.10773
G1 X56.158 Y212.352 E60.11076
G1 X55.419 Y212.112 E60.13661
G1 X55.343 Y212.087 E60.13927
G1 X54.656 Y211.853 E60.16341
