;FLAVOR:Marlin
;TIME:4493
;Filament used: 5.93846m
;Layer height: 0.2
;MINX:87.82
;MINY:94.85
;MINZ:0.2
;MAXX:212.18
;MAXY:205.15
;MAXZ:3.2
;Generated with Cura_SteamEngine 4.1.0
M140 S50
M105
M190 S50
M104 S195
M105
M109 S195
M82 ;absolute extrusion mode
G28 ;Home
G1 Z15.0 F6000 ;Move the platform down 15mm
;Prime the extruder
G92 E0
G1 F200 E3
G92 E0
G92 E0
G92 E0
G1 F2400 E-5
;LAYER_COUNT:16
;LAYER:0
M107
M204 S5000
M205 X30 Y30
G0 F3600 X89.753 Y96.685 Z0.2
M204 S500
M205 X8 Y8
;TYPE:SKIRT
G1 F2400 E0
G1 F3000 X90.291 Y96.214 E0.02378
G1 X90.879 Y95.806 E0.04759
G1 X91.508 Y95.466 E0.07137
G1 X92.172 Y95.199 E0.09517
G1 X92.861 Y95.007 E0.11896
G1 X93.567 Y94.893 E0.14275
G1 X94.05 Y94.862 E0.15884
G1 X94.371 Y94.853 E0.16952
G1 X94.55 Y94.85 E0.17548
G1 X205.073 Y94.85 E3.85149
G1 X205.165 Y94.851 E3.85455
G1 X205.863 Y94.861 E3.87777
G1 X206.576 Y94.911 E3.90154
G1 X207.28 Y95.04 E3.92534
G1 X207.964 Y95.248 E3.94912
G1 X208.621 Y95.53 E3.9729
G1 X209.243 Y95.884 E3.99671
G1 X209.821 Y96.305 E4.02049
G1 X210.349 Y96.788 E4.04429
G1 X210.819 Y97.326 E4.06805
G1 X211.227 Y97.914 E4.09185
G1 X211.566 Y98.544 E4.11565
G1 X211.833 Y99.207 E4.13942
G1 X212.024 Y99.897 E4.16323
G1 X212.137 Y100.603 E4.18702
G1 X212.168 Y101.08 E4.20291
G1 X212.177 Y101.4 E4.21356
G1 X212.18 Y101.58 E4.21955
G1 X212.18 Y118.024 E4.76648
G1 X212.179 Y118.114 E4.76947
G1 X212.169 Y118.828 E4.79322
G1 X212.164 Y119.007 E4.79918
G1 X212.123 Y119.985 E4.83174
G1 X212.046 Y122.74 E4.9234
G1 X212.046 Y125.385 E5.01138
G1 X212.121 Y128.012 E5.09879
G1 X212.156 Y128.704 E5.12183
G1 X212.161 Y128.841 E5.12639
G1 X212.177 Y129.396 E5.14486
G1 X212.18 Y129.58 E5.15098
G1 X212.18 Y146.024 E5.69791
G1 X212.179 Y146.115 E5.70094
G1 X212.155 Y147.798 E5.75692
G1 X212.154 Y147.88 E5.75965
G1 X212.129 Y148.8 E5.79026
G1 X212.131 Y151.457 E5.87863
G1 X212.178 Y153.398 E5.9432
G1 X212.18 Y153.553 E5.94836
G1 X212.18 Y170.024 E6.49619
G1 X212.179 Y170.113 E6.49915
G1 X212.169 Y170.831 E6.52303
G1 X212.164 Y171.012 E6.52905
G1 X212.123 Y171.988 E6.56154
G1 X212.046 Y174.743 E6.65321
G1 X212.046 Y177.387 E6.74115
G1 X212.121 Y180.012 E6.8285
G1 X212.156 Y180.722 E6.85214
G1 X212.161 Y180.85 E6.8564
G1 X212.177 Y181.391 E6.8744
G1 X212.18 Y181.58 E6.88069
G1 X212.18 Y198.093 E7.42991
G1 X212.171 Y198.82 E7.45409
G1 X212.122 Y199.534 E7.4779
G1 X211.994 Y200.238 E7.5017
G1 X211.788 Y200.923 E7.52549
G1 X211.507 Y201.58 E7.54925
G1 X211.154 Y202.203 E7.57307
G1 X210.734 Y202.782 E7.59686
G1 X210.252 Y203.31 E7.62064
G1 X209.715 Y203.782 E7.64442
G1 X209.127 Y204.19 E7.66822
G1 X208.498 Y204.531 E7.69202
G1 X207.835 Y204.799 E7.71581
G1 X207.146 Y204.991 E7.73959
G1 X206.44 Y205.106 E7.76339
G1 X205.95 Y205.138 E7.77972
G1 X205.629 Y205.147 E7.7904
G1 X205.45 Y205.15 E7.79635
G1 X94.927 Y205.15 E11.47236
G1 X94.844 Y205.149 E11.47512
G1 X94.146 Y205.14 E11.49834
G1 X93.433 Y205.091 E11.52211
G1 X92.729 Y204.963 E11.54591
G1 X92.044 Y204.757 E11.5697
G1 X91.387 Y204.475 E11.59348
G1 X90.765 Y204.122 E11.61727
G1 X90.186 Y203.702 E11.64106
G1 X89.657 Y203.22 E11.66486
G1 X89.186 Y202.682 E11.68864
G1 X88.778 Y202.095 E11.71242
G1 X88.438 Y201.465 E11.73623
G1 X88.17 Y200.802 E11.76002
G1 X87.978 Y200.113 E11.78381
G1 X87.864 Y199.407 E11.80759
G1 X87.831 Y198.914 E11.82403
G1 X87.822 Y198.581 E11.83511
G1 X87.82 Y198.408 E11.84086
G1 X87.82 Y181.957 E12.38802
G1 X87.821 Y181.866 E12.39105
G1 X87.831 Y181.16 E12.41453
G1 X87.836 Y180.98 E12.42052
G1 X87.877 Y180.012 E12.45275
G1 X87.954 Y177.257 E12.54441
G1 X87.954 Y174.613 E12.63235
G1 X87.878 Y171.969 E12.72033
G1 X87.844 Y171.278 E12.74334
G1 X87.839 Y171.15 E12.7476
G1 X87.823 Y170.609 E12.7656
G1 X87.82 Y170.42 E12.77189
G1 X87.82 Y153.957 E13.31945
G1 X87.821 Y153.865 E13.32251
G1 X87.845 Y152.201 E13.37786
G1 X87.846 Y152.12 E13.38056
G1 X87.871 Y151.2 E13.41117
G1 X87.869 Y148.543 E13.49954
G1 X87.822 Y146.602 E13.56412
G1 X87.82 Y146.447 E13.56927
G1 X87.82 Y129.957 E14.11773
G1 X87.821 Y129.866 E14.12076
G1 X87.831 Y129.16 E14.14424
G1 X87.836 Y128.98 E14.15023
G1 X87.877 Y128.012 E14.18246
G1 X87.954 Y125.257 E14.27412
G1 X87.954 Y122.613 E14.36206
G1 X87.878 Y119.969 E14.45004
G1 X87.844 Y119.278 E14.47305
G1 X87.839 Y119.15 E14.47731
G1 X87.823 Y118.609 E14.49531
G1 X87.82 Y118.42 E14.5016
G1 X87.82 Y101.924 E15.05026
G1 X87.821 Y101.837 E15.05315
G1 X87.83 Y101.172 E15.07527
G1 X87.879 Y100.459 E15.09904
G1 X88.008 Y99.755 E15.12285
G1 X88.215 Y99.071 E15.14662
G1 X88.497 Y98.413 E15.17043
G1 X88.85 Y97.791 E15.19421
G1 X89.27 Y97.213 E15.21798
G1 X89.753 Y96.685 E15.24178
M204 S5000
M205 X30 Y30
G0 F3600 X90.144 Y96.864
M204 S500
M205 X8 Y8
G1 F3000 X90.678 Y96.423 E15.26481
G1 X91.259 Y96.046 E15.28785
G1 X91.879 Y95.738 E15.31087
G1 X92.531 Y95.504 E15.33391
G1 X93.205 Y95.347 E15.35693
G1 X94.061 Y95.261 E15.38555
G1 X94.382 Y95.252 E15.39623
G1 X94.55 Y95.25 E15.40182
G1 X205.073 Y95.25 E19.07782
G1 X205.159 Y95.251 E19.08069
G1 X205.857 Y95.261 E19.1039
G1 X206.548 Y95.31 E19.12694
G1 X207.228 Y95.44 E19.14997
G1 X207.889 Y95.646 E19.173
G1 X208.522 Y95.928 E19.19605
G1 X209.118 Y96.28 E19.21907
G1 X209.669 Y96.699 E19.24209
G1 X210.169 Y97.179 E19.26514
G1 X210.61 Y97.713 E19.28818
G1 X210.987 Y98.294 E19.31122
G1 X211.294 Y98.915 E19.33426
G1 X211.527 Y99.567 E19.35728
G1 X211.684 Y100.241 E19.3803
G1 X211.769 Y101.091 E19.40871
G1 X211.778 Y101.411 E19.41936
G1 X211.78 Y101.58 E19.42498
G1 X211.78 Y118.024 E19.97191
G1 X211.779 Y118.108 E19.97471
G1 X211.769 Y118.822 E19.99846
G1 X211.765 Y118.991 E20.00408
G1 X211.722 Y120.005 E20.03784
G1 X211.646 Y122.729 E20.12847
G1 X211.646 Y125.361 E20.21601
G1 X211.724 Y128.095 E20.30698
G1 X211.756 Y128.724 E20.32793
G1 X211.762 Y128.852 E20.33219
G1 X211.778 Y129.407 E20.35066
G1 X211.78 Y129.58 E20.35641
G1 X211.78 Y146.024 E20.90334
G1 X211.779 Y146.11 E20.9062
G1 X211.755 Y147.793 E20.96219
G1 X211.754 Y147.87 E20.96475
G1 X211.729 Y148.79 E20.99536
G1 X211.731 Y151.467 E21.0844
G1 X211.778 Y153.408 E21.14897
G1 X211.78 Y153.553 E21.1538
G1 X211.78 Y170.024 E21.70162
G1 X211.779 Y170.108 E21.70442
G1 X211.769 Y170.826 E21.7283
G1 X211.765 Y170.995 E21.73392
G1 X211.722 Y172.005 E21.76755
G1 X211.646 Y174.732 E21.85828
G1 X211.646 Y177.363 E21.94579
G1 X211.723 Y180.063 E22.03563
G1 X211.757 Y180.742 E22.05824
G1 X211.761 Y180.862 E22.06223
G1 X211.777 Y181.403 E22.08023
G1 X211.78 Y181.58 E22.08612
G1 X211.78 Y198.088 E22.63518
G1 X211.771 Y198.815 E22.65936
G1 X211.722 Y199.506 E22.6824
G1 X211.594 Y200.187 E22.70545
G1 X211.389 Y200.848 E22.72847
G1 X211.109 Y201.481 E22.75149
G1 X210.757 Y202.078 E22.77454
G1 X210.34 Y202.631 E22.79758
G1 X209.861 Y203.131 E22.82061
G1 X209.328 Y203.573 E22.84364
G1 X208.747 Y203.951 E22.86669
G1 X208.127 Y204.259 E22.88972
G1 X207.476 Y204.494 E22.91274
G1 X206.801 Y204.652 E22.93579
G1 X205.939 Y204.739 E22.96461
G1 X205.618 Y204.748 E22.97529
G1 X205.45 Y204.75 E22.98088
G1 X94.85 Y204.75 E26.65945
G1 X94.152 Y204.741 E26.68267
G1 X93.461 Y204.692 E26.70571
G1 X92.78 Y204.563 E26.72876
G1 X92.119 Y204.358 E26.75178
G1 X91.486 Y204.077 E26.77481
G1 X90.889 Y203.726 E26.79785
G1 X90.337 Y203.308 E26.82088
G1 X89.837 Y202.829 E26.84391
G1 X89.395 Y202.295 E26.86696
G1 X89.018 Y201.715 E26.88997
G1 X88.71 Y201.094 E26.91303
G1 X88.475 Y200.443 E26.93605
G1 X88.318 Y199.768 E26.9591
G1 X88.231 Y198.903 E26.98801
G1 X88.222 Y198.57 E26.99909
G1 X88.22 Y198.408 E27.00448
G1 X88.22 Y181.957 E27.55164
G1 X88.221 Y181.872 E27.55447
G1 X88.231 Y181.166 E27.57795
G1 X88.235 Y180.997 E27.58357
G1 X88.278 Y179.978 E27.6175
G1 X88.354 Y177.268 E27.70767
G1 X88.354 Y174.636 E27.79521
G1 X88.277 Y171.937 E27.88501
G1 X88.243 Y171.258 E27.90763
G1 X88.239 Y171.138 E27.91162
G1 X88.223 Y170.597 E27.92962
G1 X88.22 Y170.42 E27.93551
G1 X88.22 Y153.957 E28.48307
G1 X88.221 Y153.87 E28.48596
G1 X88.245 Y152.206 E28.54131
G1 X88.246 Y152.13 E28.54384
G1 X88.271 Y151.21 E28.57445
G1 X88.269 Y148.533 E28.66349
G1 X88.222 Y146.592 E28.72807
G1 X88.22 Y146.447 E28.73289
G1 X88.22 Y129.957 E29.28135
G1 X88.221 Y129.872 E29.28418
G1 X88.231 Y129.166 E29.30766
G1 X88.235 Y128.997 E29.31328
G1 X88.278 Y127.978 E29.34721
G1 X88.354 Y125.268 E29.43738
G1 X88.354 Y122.633 E29.52502
G1 X88.277 Y119.937 E29.61472
G1 X88.243 Y119.258 E29.63734
G1 X88.239 Y119.138 E29.64133
G1 X88.223 Y118.597 E29.65933
G1 X88.22 Y118.42 E29.66522
G1 X88.22 Y101.924 E30.21388
G1 X88.221 Y101.843 E30.21657
G1 X88.23 Y101.178 E30.23869
G1 X88.279 Y100.487 E30.26173
G1 X88.407 Y99.807 E30.28475
G1 X88.614 Y99.145 E30.30782
G1 X88.895 Y98.512 E30.33085
G1 X89.247 Y97.916 E30.35387
G1 X89.665 Y97.364 E30.3769
G1 X90.144 Y96.864 E30.39993
M204 S5000
M205 X30 Y30
G0 F3600 X90.534 Y97.051
M204 S500
M205 X8 Y8
G1 F3000 X91.063 Y96.64 E30.42221
G1 X91.636 Y96.295 E30.44446
G1 X92.247 Y96.022 E30.46672
G1 X92.885 Y95.823 E30.48895
G1 X93.543 Y95.701 E30.5112
G1 X94.072 Y95.661 E30.52885
G1 X94.393 Y95.652 E30.53953
G1 X94.55 Y95.65 E30.54475
G1 X205.073 Y95.65 E34.22076
G1 X205.153 Y95.651 E34.22342
G1 X205.851 Y95.661 E34.24664
G1 X206.518 Y95.71 E34.26888
G1 X207.175 Y95.839 E34.29115
G1 X207.811 Y96.045 E34.31339
G1 X208.419 Y96.326 E34.33567
G1 X208.988 Y96.676 E34.35789
G1 X209.512 Y97.093 E34.38016
G1 X209.982 Y97.569 E34.40241
G1 X210.392 Y98.097 E34.42464
G1 X210.737 Y98.671 E34.44692
G1 X211.01 Y99.282 E34.46917
G1 X211.208 Y99.921 E34.49142
G1 X211.329 Y100.579 E34.51368
G1 X211.369 Y101.103 E34.53116
G1 X211.378 Y101.423 E34.5418
G1 X211.38 Y101.58 E34.54703
G1 X211.38 Y118.024 E35.09396
G1 X211.379 Y118.102 E35.09655
G1 X211.369 Y118.816 E35.1203
G1 X211.365 Y118.974 E35.12556
G1 X211.323 Y119.962 E35.15845
G1 X211.246 Y122.717 E35.25011
G1 X211.246 Y125.364 E35.33815
G1 X211.324 Y128.079 E35.42849
G1 X211.357 Y128.744 E35.45064
G1 X211.362 Y128.864 E35.45463
G1 X211.378 Y129.419 E35.4731
G1 X211.38 Y129.58 E35.47845
G1 X211.38 Y146.024 E36.02538
G1 X211.379 Y146.104 E36.02805
G1 X211.355 Y147.787 E36.08403
G1 X211.354 Y147.859 E36.08642
G1 X211.329 Y148.779 E36.11703
G1 X211.331 Y151.476 E36.20674
G1 X211.378 Y153.417 E36.27131
G1 X211.38 Y153.553 E36.27584
G1 X211.38 Y170.024 E36.82366
G1 X211.379 Y170.102 E36.82626
G1 X211.369 Y170.82 E36.85014
G1 X211.365 Y170.978 E36.8554
G1 X211.322 Y171.991 E36.88912
G1 X211.246 Y174.72 E36.97992
G1 X211.246 Y177.364 E37.06786
G1 X211.324 Y180.094 E37.1587
G1 X211.357 Y180.762 E37.18095
G1 X211.362 Y180.873 E37.18464
G1 X211.378 Y181.414 E37.20264
G1 X211.38 Y181.58 E37.20816
G1 X211.38 Y198.083 E37.75706
G1 X211.371 Y198.81 E37.78124
G1 X211.322 Y199.478 E37.80352
G1 X211.195 Y200.134 E37.82574
G1 X210.99 Y200.771 E37.848
G1 X210.711 Y201.379 E37.87025
G1 X210.361 Y201.949 E37.89249
G1 X209.945 Y202.474 E37.91477
G1 X209.47 Y202.945 E37.93702
G1 X208.943 Y203.356 E37.95925
G1 X208.37 Y203.702 E37.98151
G1 X207.76 Y203.976 E38.00375
G1 X207.121 Y204.176 E38.02602
G1 X206.463 Y204.298 E38.04828
G1 X205.928 Y204.339 E38.06613
G1 X205.607 Y204.348 E38.07681
G1 X205.45 Y204.35 E38.08203
G1 X94.855 Y204.35 E41.76044
G1 X94.157 Y204.341 E41.78365
G1 X93.49 Y204.292 E41.8059
G1 X92.833 Y204.164 E41.82816
G1 X92.196 Y203.959 E41.85042
G1 X91.588 Y203.679 E41.87268
G1 X91.018 Y203.329 E41.89493
G1 X90.494 Y202.913 E41.91718
G1 X90.023 Y202.438 E41.93943
G1 X89.612 Y201.91 E41.96168
G1 X89.267 Y201.337 E41.98393
G1 X88.993 Y200.727 E42.00617
G1 X88.793 Y200.088 E42.02844
G1 X88.672 Y199.43 E42.05069
G1 X88.631 Y198.892 E42.06864
G1 X88.622 Y198.559 E42.07972
G1 X88.62 Y198.408 E42.08474
G1 X88.62 Y181.957 E42.6319
G1 X88.621 Y181.878 E42.63453
G1 X88.631 Y181.172 E42.65802
G1 X88.635 Y181.013 E42.66331
G1 X88.678 Y180.002 E42.69696
G1 X88.754 Y177.28 E42.78753
G1 X88.754 Y174.625 E42.87584
G1 X88.676 Y171.906 E42.96631
G1 X88.643 Y171.238 E42.98855
G1 X88.638 Y171.127 E42.99225
G1 X88.622 Y170.586 E43.01025
G1 X88.62 Y170.42 E43.01577
G1 X88.62 Y153.957 E43.56333
G1 X88.621 Y153.876 E43.56603
G1 X88.645 Y152.212 E43.62138
G1 X88.646 Y152.141 E43.62374
G1 X88.671 Y151.221 E43.65435
G1 X88.669 Y148.524 E43.74405
G1 X88.622 Y146.583 E43.80863
G1 X88.62 Y146.447 E43.81315
G1 X88.62 Y129.957 E44.36161
G1 X88.621 Y129.878 E44.36424
G1 X88.631 Y129.172 E44.38773
G1 X88.635 Y129.013 E44.39302
G1 X88.678 Y128.002 E44.42667
G1 X88.754 Y125.28 E44.51724
G1 X88.754 Y122.625 E44.60555
G1 X88.676 Y119.906 E44.69602
G1 X88.643 Y119.238 E44.71826
G1 X88.638 Y119.127 E44.72196
G1 X88.622 Y118.586 E44.73996
G1 X88.62 Y118.42 E44.74548
G1 X88.62 Y101.924 E45.29414
G1 X88.621 Y101.848 E45.29667
G1 X88.63 Y101.183 E45.31879
G1 X88.679 Y100.516 E45.34103
G1 X88.807 Y99.859 E45.3633
G1 X89.012 Y99.223 E45.38552
G1 X89.292 Y98.615 E45.40779
G1 X89.643 Y98.045 E45.43005
G1 X90.059 Y97.521 E45.4523
G1 X90.534 Y97.051 E45.47453
M204 S5000
M205 X30 Y30
G0 F3600 X90.452 Y97.685
M204 S500
M205 X8 Y8
G1 F3000 X90.923 Y97.245 E45.49597
G1 X91.446 Y96.867 E45.51743
G1 X92.01 Y96.556 E45.53885
G1 X92.609 Y96.318 E45.56029
G1 X93.233 Y96.155 E45.58174
G1 X94.083 Y96.061 E45.61018
G1 X94.404 Y96.052 E45.62086
G1 X94.55 Y96.05 E45.62572
G1 X205.073 Y96.05 E49.30173
G1 X205.147 Y96.051 E49.30419
G1 X205.845 Y96.061 E49.32741
G1 X206.488 Y96.11 E49.34886
G1 X207.12 Y96.238 E49.3703
G1 X207.731 Y96.444 E49.39175
G1 X208.312 Y96.723 E49.41319
G1 X208.854 Y97.072 E49.43463
G1 X209.348 Y97.486 E49.45607
G1 X209.788 Y97.958 E49.47753
G1 X210.166 Y98.48 E49.49896
G1 X210.476 Y99.045 E49.5204
G1 X210.714 Y99.644 E49.54184
G1 X210.876 Y100.268 E49.56328
G1 X210.969 Y101.114 E49.59159
G1 X210.978 Y101.434 E49.60223
G1 X210.98 Y101.58 E49.60709
G1 X210.98 Y118.024 E50.15402
G1 X210.979 Y118.097 E50.15645
G1 X210.969 Y118.811 E50.1802
G1 X210.965 Y118.957 E50.18505
G1 X210.923 Y119.951 E50.21815
G1 X210.846 Y122.706 E50.30981
G1 X210.846 Y125.384 E50.39888
G1 X210.924 Y128.111 E50.48962
G1 X210.957 Y128.764 E50.51137
G1 X210.962 Y128.875 E50.51506
G1 X210.978 Y129.43 E50.53353
G1 X210.98 Y129.58 E50.53852
G1 X210.98 Y146.024 E51.08545
G1 X210.979 Y146.098 E51.08791
G1 X210.955 Y147.781 E51.14389
G1 X210.954 Y147.848 E51.14612
G1 X210.929 Y148.768 E51.17673
G1 X210.931 Y151.486 E51.26713
G1 X210.978 Y153.427 E51.33171
G1 X210.98 Y153.553 E51.3359
G1 X210.98 Y170.024 E51.88373
G1 X210.979 Y170.096 E51.88612
G1 X210.969 Y170.814 E51.91001
G1 X210.965 Y170.961 E51.9149
G1 X210.923 Y171.954 E51.94796
G1 X210.846 Y174.709 E52.03962
G1 X210.846 Y177.386 E52.12866
G1 X210.922 Y180.046 E52.21717
G1 X210.958 Y180.782 E52.24168
G1 X210.962 Y180.885 E52.24511
G1 X210.978 Y181.426 E52.26311
G1 X210.98 Y181.58 E52.26823
G1 X210.98 Y198.078 E52.81695
G1 X210.971 Y198.805 E52.84114
G1 X210.923 Y199.448 E52.86258
G1 X210.796 Y200.08 E52.88402
G1 X210.591 Y200.692 E52.90549
G1 X210.313 Y201.273 E52.92691
G1 X209.965 Y201.816 E52.94836
G1 X209.552 Y202.311 E52.96981
G1 X209.081 Y202.751 E52.99124
G1 X208.559 Y203.13 E53.0127
G1 X207.995 Y203.441 E53.03412
G1 X207.396 Y203.68 E53.05557
G1 X206.773 Y203.844 E53.077
G1 X205.917 Y203.939 E53.10564
G1 X205.596 Y203.948 E53.11632
G1 X205.45 Y203.95 E53.12118
G1 X94.86 Y203.95 E56.79942
G1 X94.162 Y203.941 E56.82264
G1 X93.519 Y203.892 E56.84408
G1 X92.887 Y203.765 E56.86552
G1 X92.276 Y203.56 E56.88696
G1 X91.695 Y203.282 E56.90838
G1 X91.152 Y202.933 E56.92985
G1 X90.657 Y202.52 E56.95129
G1 X90.217 Y202.049 E56.97273
G1 X89.838 Y201.527 E56.99419
G1 X89.527 Y200.963 E57.01561
G1 X89.289 Y200.364 E57.03704
G1 X89.126 Y199.74 E57.0585
G1 X89.031 Y198.881 E57.08724
G1 X89.022 Y198.548 E57.09832
G1 X89.02 Y198.408 E57.10298
G1 X89.02 Y181.957 E57.65014
G1 X89.021 Y181.883 E57.6526
G1 X89.031 Y181.177 E57.67608
G1 X89.035 Y181.03 E57.68098
G1 X89.077 Y180.03 E57.71427
G1 X89.154 Y177.291 E57.8054
G1 X89.154 Y174.614 E57.89444
G1 X89.077 Y171.922 E57.98401
G1 X89.042 Y171.218 E58.00746
G1 X89.038 Y171.115 E58.01088
G1 X89.022 Y170.574 E58.02889
G1 X89.02 Y170.42 E58.03401
G1 X89.02 Y153.957 E58.58157
G1 X89.021 Y153.882 E58.58406
G1 X89.045 Y152.218 E58.63941
G1 X89.046 Y152.152 E58.64161
G1 X89.071 Y151.232 E58.67222
