;FLAVOR:Marlin
;TIME:2254
;Filament used: 2.98583m
;Layer height: 0.2
;MINX:87.82
;MINY:120.85
;MINZ:0.2
;MAXX:212.18
;MAXY:179.15
;MAXZ:3.2
;Generated with Cura_SteamEngine 4.1.0
M140 S50
M105
M190 S50
M104 S195
M105
M109 S195
M82 ;absolute extrusion mode
G28 ;Home
G1 Z15.0 F6000 ;Move the platform down 15mm
;Prime the extruder
G92 E0
G1 F200 E3
G92 E0
G92 E0
G92 E0
G1 F2400 E-5
;LAYER_COUNT:16
;LAYER:0
M107
M204 S5000
M205 X30 Y30
G0 F3600 X90.291 Y122.214 Z0.2
M204 S500
M205 X8 Y8
;TYPE:SKIRT
G1 F2400 E0
G1 F3000 X90.879 Y121.806 E0.0238
G1 X91.508 Y121.466 E0.04759
G1 X92.172 Y121.199 E0.07139
G1 X92.861 Y121.007 E0.09518
G1 X93.567 Y120.893 E0.11896
G1 X94.05 Y120.862 E0.13506
G1 X94.371 Y120.853 E0.14574
G1 X94.55 Y120.85 E0.1517
G1 X205.073 Y120.85 E3.82771
G1 X205.165 Y120.851 E3.83077
G1 X205.863 Y120.861 E3.85398
G1 X206.576 Y120.911 E3.87776
G1 X207.28 Y121.04 E3.90156
G1 X207.964 Y121.248 E3.92534
G1 X208.621 Y121.53 E3.94912
G1 X209.243 Y121.884 E3.97292
G1 X209.821 Y122.305 E3.99671
G1 X210.349 Y122.788 E4.02051
G1 X210.819 Y123.326 E4.04427
G1 X211.227 Y123.914 E4.06807
G1 X211.566 Y124.544 E4.09187
G1 X211.833 Y125.207 E4.11564
G1 X212.024 Y125.897 E4.13945
G1 X212.137 Y126.603 E4.16323
G1 X212.168 Y127.08 E4.17913
G1 X212.177 Y127.4 E4.18978
G1 X212.18 Y127.58 E4.19577
G1 X212.18 Y144.024 E4.7427
G1 X212.179 Y144.113 E4.74566
G1 X212.169 Y144.831 E4.76954
G1 X212.164 Y145.012 E4.77556
G1 X212.123 Y145.988 E4.80805
G1 X212.046 Y148.743 E4.89972
G1 X212.046 Y151.387 E4.98766
G1 X212.121 Y154.012 E5.075
G1 X212.156 Y154.722 E5.09865
G1 X212.161 Y154.85 E5.10291
G1 X212.177 Y155.391 E5.12091
G1 X212.18 Y155.58 E5.1272
G1 X212.18 Y172.093 E5.67642
G1 X212.171 Y172.82 E5.7006
G1 X212.122 Y173.534 E5.72441
G1 X211.994 Y174.238 E5.7482
G1 X211.788 Y174.923 E5.772
G1 X211.507 Y175.58 E5.79576
G1 X211.154 Y176.203 E5.81958
G1 X210.734 Y176.782 E5.84337
G1 X210.252 Y177.31 E5.86715
G1 X209.715 Y177.782 E5.89093
G1 X209.127 Y178.19 E5.91473
G1 X208.498 Y178.531 E5.93853
G1 X207.835 Y178.799 E5.96231
G1 X207.146 Y178.991 E5.9861
G1 X206.44 Y179.106 E6.00989
G1 X205.95 Y179.138 E6.02623
G1 X205.629 Y179.147 E6.03691
G1 X205.45 Y179.15 E6.04286
G1 X94.927 Y179.15 E9.71887
G1 X94.844 Y179.149 E9.72163
G1 X94.146 Y179.14 E9.74485
G1 X93.433 Y179.091 E9.76862
G1 X92.729 Y178.963 E9.79242
G1 X92.044 Y178.757 E9.81621
G1 X91.387 Y178.475 E9.83999
G1 X90.765 Y178.122 E9.86378
G1 X90.186 Y177.702 E9.88757
G1 X89.657 Y177.22 E9.91137
G1 X89.186 Y176.682 E9.93515
G1 X88.778 Y176.095 E9.95893
G1 X88.438 Y175.465 E9.98274
G1 X88.17 Y174.802 E10.00652
G1 X87.978 Y174.113 E10.03031
G1 X87.864 Y173.407 E10.0541
G1 X87.831 Y172.914 E10.07053
G1 X87.822 Y172.581 E10.08161
G1 X87.82 Y172.408 E10.08737
G1 X87.82 Y155.957 E10.63453
G1 X87.821 Y155.866 E10.63756
G1 X87.831 Y155.16 E10.66104
G1 X87.836 Y154.98 E10.66703
G1 X87.877 Y154.012 E10.69926
G1 X87.954 Y151.257 E10.79092
G1 X87.954 Y148.613 E10.87886
G1 X87.878 Y145.969 E10.96684
G1 X87.844 Y145.278 E10.98985
G1 X87.839 Y145.15 E10.99411
G1 X87.823 Y144.609 E11.01211
G1 X87.82 Y144.42 E11.0184
G1 X87.82 Y127.924 E11.56706
G1 X87.821 Y127.837 E11.56995
G1 X87.83 Y127.172 E11.59207
G1 X87.879 Y126.459 E11.61584
G1 X88.008 Y125.755 E11.63965
G1 X88.215 Y125.071 E11.66342
G1 X88.497 Y124.413 E11.68723
G1 X88.85 Y123.791 E11.71101
G1 X89.27 Y123.213 E11.73478
G1 X89.753 Y122.685 E11.75858
G1 X90.291 Y122.214 E11.78236
M204 S5000
M205 X30 Y30
G0 F3600 X90.678 Y122.423
M204 S500
M205 X8 Y8
G1 F3000 X91.259 Y122.046 E11.8054
G1 X91.879 Y121.738 E11.82842
G1 X92.531 Y121.504 E11.85146
G1 X93.205 Y121.347 E11.87448
G1 X94.061 Y121.261 E11.90309
G1 X94.382 Y121.252 E11.91377
G1 X94.55 Y121.25 E11.91936
G1 X205.073 Y121.25 E15.59537
G1 X205.159 Y121.251 E15.59823
G1 X205.857 Y121.261 E15.62145
G1 X206.548 Y121.31 E15.64449
G1 X207.228 Y121.44 E15.66752
G1 X207.889 Y121.646 E15.69054
G1 X208.522 Y121.928 E15.71359
G1 X209.118 Y122.28 E15.73662
G1 X209.669 Y122.699 E15.75964
G1 X210.169 Y123.179 E15.78269
G1 X210.61 Y123.713 E15.80573
G1 X210.987 Y124.294 E15.82876
G1 X211.294 Y124.915 E15.8518
G1 X211.527 Y125.567 E15.87483
G1 X211.684 Y126.241 E15.89785
G1 X211.769 Y127.091 E15.92626
G1 X211.778 Y127.411 E15.93691
G1 X211.78 Y127.58 E15.94253
G1 X211.78 Y144.024 E16.48946
G1 X211.779 Y144.108 E16.49225
G1 X211.769 Y144.826 E16.51614
G1 X211.765 Y144.995 E16.52176
G1 X211.722 Y146.005 E16.55538
G1 X211.646 Y148.732 E16.64612
G1 X211.646 Y151.363 E16.73363
G1 X211.723 Y154.063 E16.82346
G1 X211.757 Y154.742 E16.84608
G1 X211.761 Y154.862 E16.85007
G1 X211.777 Y155.403 E16.86807
G1 X211.78 Y155.58 E16.87396
G1 X211.78 Y172.088 E17.42302
G1 X211.771 Y172.815 E17.4472
G1 X211.722 Y173.506 E17.47024
G1 X211.594 Y174.187 E17.49329
G1 X211.389 Y174.848 E17.5163
G1 X211.109 Y175.481 E17.53933
G1 X210.757 Y176.078 E17.56238
G1 X210.34 Y176.631 E17.58541
G1 X209.861 Y177.131 E17.60844
G1 X209.328 Y177.573 E17.63147
G1 X208.747 Y177.951 E17.65453
G1 X208.127 Y178.259 E17.67755
G1 X207.476 Y178.494 E17.70057
G1 X206.801 Y178.652 E17.72363
G1 X205.939 Y178.739 E17.75245
G1 X205.618 Y178.748 E17.76313
G1 X205.45 Y178.75 E17.76871
G1 X94.85 Y178.75 E21.44729
G1 X94.152 Y178.741 E21.4705
G1 X93.461 Y178.692 E21.49354
G1 X92.78 Y178.563 E21.5166
G1 X92.119 Y178.358 E21.53961
G1 X91.486 Y178.077 E21.56265
G1 X90.889 Y177.726 E21.58568
G1 X90.337 Y177.308 E21.60871
G1 X89.837 Y176.829 E21.63174
G1 X89.395 Y176.295 E21.6548
G1 X89.018 Y175.715 E21.67781
G1 X88.71 Y175.094 E21.70086
G1 X88.475 Y174.443 E21.72388
G1 X88.318 Y173.768 E21.74693
G1 X88.231 Y172.903 E21.77585
G1 X88.222 Y172.57 E21.78693
G1 X88.22 Y172.408 E21.79231
G1 X88.22 Y155.957 E22.33948
G1 X88.221 Y155.872 E22.3423
G1 X88.231 Y155.166 E22.36579
G1 X88.235 Y154.997 E22.37141
G1 X88.278 Y153.978 E22.40533
G1 X88.354 Y151.268 E22.4955
G1 X88.354 Y148.636 E22.58304
G1 X88.277 Y145.937 E22.67285
G1 X88.243 Y145.258 E22.69546
G1 X88.239 Y145.138 E22.69946
G1 X88.223 Y144.597 E22.71746
G1 X88.22 Y144.42 E22.72334
G1 X88.22 Y127.924 E23.272
G1 X88.221 Y127.843 E23.2747
G1 X88.23 Y127.178 E23.29682
G1 X88.279 Y126.487 E23.31986
G1 X88.407 Y125.807 E23.34287
G1 X88.614 Y125.145 E23.36594
G1 X88.895 Y124.512 E23.38898
G1 X89.247 Y123.916 E23.412
G1 X89.665 Y123.364 E23.43503
G1 X90.144 Y122.864 E23.45806
G1 X90.678 Y122.423 E23.48109
M204 S5000
M205 X30 Y30
G0 F3600 X90.534 Y123.051
M204 S500
M205 X8 Y8
G1 F3000 X91.063 Y122.64 E23.50337
G1 X91.636 Y122.295 E23.52562
G1 X92.247 Y122.022 E23.54788
G1 X92.885 Y121.823 E23.57011
G1 X93.543 Y121.701 E23.59236
G1 X94.072 Y121.661 E23.61001
G1 X94.393 Y121.652 E23.62069
G1 X94.55 Y121.65 E23.62591
G1 X205.073 Y121.65 E27.30192
G1 X205.153 Y121.651 E27.30458
G1 X205.851 Y121.661 E27.3278
G1 X206.518 Y121.71 E27.35005
G1 X207.175 Y121.839 E27.37232
G1 X207.811 Y122.045 E27.39455
G1 X208.419 Y122.326 E27.41683
G1 X208.988 Y122.676 E27.43905
G1 X209.512 Y123.093 E27.46132
G1 X209.982 Y123.569 E27.48357
G1 X210.392 Y124.097 E27.5058
G1 X210.737 Y124.671 E27.52808
G1 X211.01 Y125.282 E27.55034
G1 X211.208 Y125.921 E27.57259
G1 X211.329 Y126.579 E27.59484
G1 X211.369 Y127.103 E27.61232
G1 X211.378 Y127.423 E27.62296
G1 X211.38 Y127.58 E27.62819
G1 X211.38 Y144.024 E28.17512
G1 X211.379 Y144.102 E28.17771
G1 X211.369 Y144.82 E28.20159
G1 X211.365 Y144.978 E28.20685
G1 X211.322 Y145.991 E28.24057
G1 X211.246 Y148.72 E28.33138
G1 X211.246 Y151.364 E28.41932
G1 X211.324 Y154.094 E28.51015
G1 X211.357 Y154.762 E28.5324
G1 X211.362 Y154.873 E28.53609
G1 X211.378 Y155.414 E28.55409
G1 X211.38 Y155.58 E28.55962
G1 X211.38 Y172.083 E29.10851
G1 X211.371 Y172.81 E29.13269
G1 X211.322 Y173.478 E29.15497
G1 X211.195 Y174.134 E29.17719
G1 X210.99 Y174.771 E29.19945
G1 X210.711 Y175.379 E29.2217
G1 X210.361 Y175.949 E29.24395
G1 X209.945 Y176.474 E29.26622
G1 X209.47 Y176.945 E29.28847
G1 X208.943 Y177.356 E29.3107
G1 X208.37 Y177.702 E29.33296
G1 X207.76 Y177.976 E29.35521
G1 X207.121 Y178.176 E29.37748
G1 X206.463 Y178.298 E29.39973
G1 X205.928 Y178.339 E29.41758
G1 X205.607 Y178.348 E29.42826
G1 X205.45 Y178.35 E29.43348
G1 X94.855 Y178.35 E33.11189
G1 X94.157 Y178.341 E33.13511
G1 X93.49 Y178.292 E33.15735
G1 X92.833 Y178.164 E33.17961
G1 X92.196 Y177.959 E33.20187
G1 X91.588 Y177.679 E33.22413
G1 X91.018 Y177.329 E33.24638
G1 X90.494 Y176.913 E33.26863
G1 X90.023 Y176.438 E33.29088
G1 X89.612 Y175.91 E33.31314
G1 X89.267 Y175.337 E33.33538
G1 X88.993 Y174.727 E33.35762
G1 X88.793 Y174.088 E33.37989
G1 X88.672 Y173.43 E33.40215
G1 X88.631 Y172.892 E33.42009
G1 X88.622 Y172.559 E33.43117
G1 X88.62 Y172.408 E33.43619
G1 X88.62 Y155.957 E33.98336
G1 X88.621 Y155.878 E33.98598
G1 X88.631 Y155.172 E34.00947
G1 X88.635 Y155.013 E34.01476
G1 X88.678 Y154.002 E34.04841
G1 X88.754 Y151.28 E34.13898
G1 X88.754 Y148.625 E34.22729
G1 X88.676 Y145.906 E34.31776
G1 X88.643 Y145.238 E34.34001
G1 X88.638 Y145.127 E34.3437
G1 X88.622 Y144.586 E34.3617
G1 X88.62 Y144.42 E34.36722
G1 X88.62 Y127.924 E34.91588
G1 X88.621 Y127.848 E34.91841
G1 X88.63 Y127.183 E34.94053
G1 X88.679 Y126.516 E34.96278
G1 X88.807 Y125.859 E34.98504
G1 X89.012 Y125.223 E35.00726
G1 X89.292 Y124.615 E35.02953
G1 X89.643 Y124.045 E35.05179
G1 X90.059 Y123.521 E35.07404
G1 X90.534 Y123.051 E35.09627
M204 S5000
M205 X30 Y30
G0 F3600 X90.923 Y123.245
M204 S500
M205 X8 Y8
G1 F3000 X91.446 Y122.867 E35.11773
G1 X92.01 Y122.556 E35.13915
G1 X92.609 Y122.318 E35.16059
G1 X93.233 Y122.155 E35.18204
G1 X94.083 Y122.061 E35.21049
G1 X94.404 Y122.052 E35.22117
G1 X94.55 Y122.05 E35.22602
G1 X205.073 Y122.05 E38.90203
G1 X205.147 Y122.051 E38.90449
G1 X205.845 Y122.061 E38.92771
G1 X206.488 Y122.11 E38.94916
G1 X207.12 Y122.238 E38.97061
G1 X207.731 Y122.444 E38.99205
G1 X208.312 Y122.723 E39.01349
G1 X208.854 Y123.072 E39.03493
G1 X209.348 Y123.486 E39.05637
G1 X209.788 Y123.958 E39.07783
G1 X210.166 Y124.48 E39.09927
G1 X210.476 Y125.045 E39.1207
G1 X210.714 Y125.644 E39.14214
G1 X210.876 Y126.268 E39.16358
G1 X210.969 Y127.114 E39.19189
G1 X210.978 Y127.434 E39.20254
G1 X210.98 Y127.58 E39.20739
G1 X210.98 Y144.024 E39.75432
G1 X210.979 Y144.096 E39.75672
G1 X210.969 Y144.814 E39.7806
G1 X210.965 Y144.961 E39.78549
G1 X210.923 Y145.954 E39.81855
G1 X210.846 Y148.709 E39.91022
G1 X210.846 Y151.386 E39.99925
G1 X210.922 Y154.046 E40.08776
G1 X210.958 Y154.782 E40.11227
G1 X210.962 Y154.885 E40.1157
G1 X210.978 Y155.426 E40.1337
G1 X210.98 Y155.58 E40.13882
G1 X210.98 Y172.078 E40.68755
G1 X210.971 Y172.805 E40.71173
G1 X210.923 Y173.448 E40.73318
G1 X210.796 Y174.08 E40.75462
G1 X210.591 Y174.692 E40.77608
G1 X210.313 Y175.273 E40.79751
G1 X209.965 Y175.816 E40.81896
G1 X209.552 Y176.311 E40.8404
G1 X209.081 Y176.751 E40.86184
G1 X208.559 Y177.13 E40.88329
G1 X207.995 Y177.441 E40.90471
G1 X207.396 Y177.68 E40.92616
G1 X206.773 Y177.844 E40.94759
G1 X205.917 Y177.939 E40.97624
G1 X205.596 Y177.948 E40.98692
G1 X205.45 Y177.95 E40.99177
G1 X94.86 Y177.95 E44.67001
G1 X94.162 Y177.941 E44.69323
G1 X93.519 Y177.892 E44.71468
G1 X92.887 Y177.765 E44.73612
G1 X92.276 Y177.56 E44.75755
G1 X91.695 Y177.282 E44.77898
G1 X91.152 Y176.933 E44.80044
G1 X90.657 Y176.52 E44.82189
G1 X90.217 Y176.049 E44.84332
G1 X89.838 Y175.527 E44.86478
G1 X89.527 Y174.963 E44.8862
G1 X89.289 Y174.364 E44.90764
G1 X89.126 Y173.74 E44.92909
G1 X89.031 Y172.881 E44.95783
G1 X89.022 Y172.548 E44.96891
G1 X89.02 Y172.408 E44.97357
G1 X89.02 Y155.957 E45.52073
G1 X89.021 Y155.883 E45.52319
G1 X89.031 Y155.177 E45.54668
G1 X89.035 Y155.03 E45.55157
G1 X89.077 Y154.03 E45.58486
G1 X89.154 Y151.291 E45.67599
G1 X89.154 Y148.614 E45.76503
G1 X89.077 Y145.922 E45.8546
G1 X89.042 Y145.218 E45.87805
G1 X89.038 Y145.115 E45.88148
G1 X89.022 Y144.574 E45.89948
G1 X89.02 Y144.42 E45.9046
G1 X89.02 Y127.854 E46.45559
G1 X89.029 Y127.189 E46.47771
G1 X89.078 Y126.546 E46.49916
G1 X89.206 Y125.914 E46.5206
G1 X89.411 Y125.303 E46.54204
G1 X89.69 Y124.722 E46.56348
G1 X90.039 Y124.179 E46.58495
G1 X90.452 Y123.685 E46.60636
G1 X90.923 Y123.245 E46.6278
M204 S5000
M205 X30 Y30
G1 F2400 E41.6278
;MESH:RPiPlates.stl
G0 F3600 X94.82 Y144.15
M204 S500
M205 X8 Y8
;TYPE:WALL-INNER
G1 F2400 E46.6278
G1 F3000 X94.82 Y127.85 E47.16994
G1 X205.18 Y127.85 E50.84053
G1 X205.18 Y144.15 E51.38267
G1 X94.82 Y144.15 E55.05326
M204 S5000
M205 X30 Y30
G1 F2400 E50.05326
G0 F3600 X114.288 Y138.286
M204 S500
M205 X8 Y8
G1 F2400 E55.05326
G1 F3000 X114.929 Y138.35 E55.07468
G1 X118.39 Y138.35 E55.1898
G1 X118.954 Y138.275 E55.20872
G1 X119.497 Y138.053 E55.22823
G1 X119.962 Y137.717 E55.24731
G1 X120.339 Y137.262 E55.26696
G1 X120.589 Y136.728 E55.28658
G1 X120.7 Y136.148 E55.30622
G1 X120.663 Y135.558 E55.32588
G1 X120.479 Y134.994 E55.34561
G1 X120.151 Y134.487 E55.36569
G1 X119.719 Y134.085 E55.38532
G1 X119.201 Y133.807 E55.40487
G1 X118.646 Y133.664 E55.42394
G1 X114.829 Y133.65 E55.55089
G1 X114.518 Y133.673 E55.56126
G1 X113.967 Y133.819 E55.58022
G1 X113.454 Y134.105 E55.59976
G1 X113.036 Y134.5 E55.61889
G1 X112.72 Y134.997 E55.63847
G1 X112.537 Y135.558 E55.6581
G1 X112.501 Y136.148 E55.67776
G1 X112.61 Y136.727 E55.69736
G1 X112.862 Y137.264 E55.71709
G1 X113.253 Y137.728 E55.73727
G1 X113.733 Y138.07 E55.75687
G1 X114.288 Y138.286 E55.77668
M204 S5000
M205 X30 Y30
G1 F2400 E50.77668
G0 F3600 X180.088 Y138.286
M204 S500
M205 X8 Y8
G1 F2400 E55.77668
G1 F3000 X180.729 Y138.35 E55.7981
G1 X184.19 Y138.35 E55.91322
G1 X184.754 Y138.275 E55.93214
G1 X185.297 Y138.053 E55.95165
G1 X185.762 Y137.717 E55.97073
G1 X186.139 Y137.262 E55.99039
G1 X186.39 Y136.727 E56.01004
G1 X186.499 Y136.148 E56.02964
G1 X186.463 Y135.559 E56.04927
G1 X186.279 Y134.994 E56.06903
G1 X185.951 Y134.487 E56.08911
G1 X185.519 Y134.085 E56.10874
G1 X185.001 Y133.807 E56.12829
G1 X184.446 Y133.664 E56.14736
G1 X180.63 Y133.651 E56.27428
G1 X180.319 Y133.673 E56.28465
G1 X179.767 Y133.819 E56.30364
G1 X179.254 Y134.105 E56.32317
G1 X178.836 Y134.5 E56.3423
G1 X178.52 Y134.997 E56.36189
G1 X178.337 Y135.558 E56.38152
G1 X178.3 Y136.148 E56.40118
G1 X178.411 Y136.727 E56.42079
G1 X178.662 Y137.264 E56.4405
G1 X179.053 Y137.728 E56.46068
G1 X179.533 Y138.07 E56.48029
G1 X180.088 Y138.286 E56.50009
M204 S5000
M205 X30 Y30
G0 F3600 X180.182 Y137.893
M204 S500
M205 X8 Y8
;TYPE:WALL-OUTER
G1 F3000 X180.749 Y137.95 E56.51905
G1 X184.163 Y137.95 E56.6326
G1 X184.65 Y137.885 E56.64894
G1 X185.102 Y137.701 E56.66517
G1 X185.486 Y137.423 E56.68094
G1 X185.798 Y137.046 E56.69721
G1 X186.006 Y136.603 E56.71349
G1 X186.097 Y136.123 E56.72974
G1 X186.067 Y135.634 E56.74604
G1 X185.915 Y135.168 E56.76234
G1 X185.642 Y134.746 E56.77905
G1 X185.284 Y134.413 E56.79532
G1 X184.854 Y134.182 E56.81155
G1 X184.395 Y134.064 E56.82731
G1 X180.643 Y134.051 E56.95211
G1 X180.385 Y134.069 E56.96071
G1 X179.918 Y134.193 E56.97678
G1 X179.492 Y134.43 E56.99299
G1 X179.147 Y134.756 E57.00878
G1 X178.885 Y135.169 E57.02505
G1 X178.733 Y135.634 E57.04132
G1 X178.702 Y136.123 E57.05762
G1 X178.794 Y136.603 E57.07387
G1 X179.002 Y137.047 E57.09018
G1 X179.326 Y137.432 E57.10692
G1 X179.724 Y137.715 E57.12316
G1 X180.182 Y137.893 E57.1395
M204 S5000
M205 X30 Y30
G0 F3600 X180.381 Y137.913
G1 F2400 E52.1395
G0 F3600 X114.382 Y137.893
M204 S500
M205 X8 Y8
G1 F2400 E57.1395
G1 F3000 X114.949 Y137.95 E57.15846
G1 X118.363 Y137.95 E57.27201
G1 X118.85 Y137.885 E57.28835
G1 X119.302 Y137.701 E57.30458
G1 X119.686 Y137.423 E57.32035
G1 X119.998 Y137.046 E57.33662
G1 X120.206 Y136.603 E57.3529
G1 X120.298 Y136.123 E57.36916
G1 X120.267 Y135.634 E57.38545
G1 X120.115 Y135.168 E57.40175
G1 X119.842 Y134.746 E57.41847
G1 X119.484 Y134.413 E57.43473
G1 X119.054 Y134.182 E57.45097
G1 X118.595 Y134.064 E57.46673
G1 X114.843 Y134.05 E57.59152
G1 X114.585 Y134.069 E57.60013
G1 X114.118 Y134.193 E57.6162
G1 X113.692 Y134.43 E57.63241
G1 X113.347 Y134.756 E57.6482
G1 X113.085 Y135.169 E57.66447
G1 X112.933 Y135.634 E57.68074
G1 X112.903 Y136.123 E57.69703
G1 X112.994 Y136.603 E57.71328
G1 X113.202 Y137.047 E57.72959
G1 X113.526 Y137.432 E57.74633
G1 X113.924 Y137.715 E57.76257
